X: 12905
T: Fi's Frolics
R: jig
M: 6/8
K: Amajor
Acd ecA|cea gea|ged cec|BBB AFE|
Acd ecA|cea gea|ged cec|BAG3/2AeA/|
Fce cBA|DEF AdB|Acd eag|ecd ecA|
Fce cBA|DEF Adc|Acd ecA|BBB AG3/2E/|
Fce cBA|DEF Adc|Acd eag|ecd ecA|
Fce cBA|DEF AdB|Acd ecA|BBB AFE|

